X:45
T:Weymss Castle Strathspey
C:Robert Petrie
S:Petrie's Collection of Strathspey Reels and Country Dances &c., 1790
Z:Steve Wyrick , 6/4/04
N:Petrie's First Collection, page 20
L:1/8
V:1 name = "violin"
V:2 name = "bass" clef=bass middle=d transpose=-24
M:C
R:Strathspey
K:Bb
[V:1] F|TB>cBF G>FE<D|EC e/d/c/=B/ cGGA|(B/c/d/c/) BF G>FE>D|E<C F>E DB,B,:|
[V:2] z| B2 d2 e>dc>B|c2 g2        e2e2|d2         d2 edcB  |c2  F2  B2b  :|
%alternate: [V:2] z|B2d2B2B2|c2g2 e2e2|d2d2B2B2|c2F2 B2b:|
[V:1] d/e/|fB G<f|f<bd<f B<fd<B|AF f/e/d/c/ dBBg|
[V:2]    z|B2 b2  d'2b2 |a2    b2      e'2 e2 |d2 B2  d2 B2 |F2 f2       B2z2|
[V:1] ff BBGB|Ag|f>eTd>c dBB|]
[V:2] d'2b2  d'2b2 |a2 b2        e'2e2|f2 e2  d2 e2 |f2  F2  B2B|]
% The above code was written using Phil Taylor's BarFly abc reader/converter/player program.
% Other abc converters (e.g. abc2ps) may require everything after the word "bass" to be
% deleted in the V:2 header line for correct display of notes the bass clef, or require that
% the M: and K: fields be repeated directly under the V:1 header line to display the meter
% and key signature on both staffs.  Some abc MIDI players (e.g. abc2midi) will not play
% multiple-voiced abc code.  -SW
